src/assets/img/logos/client-logo-unitedway.svg

<svg width="312" height="133" viewBox="0 0 312 133" xmlns="http://www.w3.org/2000/svg"><g id="Page-1" stroke="none" stroke-width="1" fill-rule="evenodd"><g id="client-logo-unitedway" fill-rule="nonzero"><path d="M.3.6V133h310.9V.6H.3Zm183 129.9H3V3.2h180.2v127.2h.1v.1Zm125.4 0H185.8V3.2h122.7v127.2h.2v.1Z" id="Shape"/><path d="m94.9 69.7-5.8 28.1-4.3-28.2c-.1-.7-.1-.8-.8-.8h-8.3c-.8 0-1 .1-1 1.2 0 3.1.8 4.3 3 4.5l.8.1 6.3 34.8c.2.8.3.9 1 .9h5.5c.9 0 .9 0 1-.9l5.4-27.1 4.6 27.1c.2.9.2.9 1 .9h5.5c.7 0 .8-.1 1-.9l7.1-34.8h.8c2.2-.2 3-1.4 3-4.5 0-1-.1-1-.8-1.2h-8.1c-.7 0-.7.1-.8.8l-4.6 28.2-5.5-28.1c-.1-.8-.2-.9-1.2-.9H96c-.9-.3-.9 0-1.1.8Zm-6.7-44.5c2.3 0 4-2 4-4.5 0-2.4-1.8-4.4-4-4.4-2.3 0-4.1 2-4.1 4.4 0 2.6 1.8 4.5 4.1 4.5Zm-4.1 28.1c-2.9 0-3.8 1-3.8 4.4 0 1 .1 1 .9 1h13.9c.8 0 .9-.1.9-1 0-3.3-.9-4.4-3.8-4.4h-.7V28.7c0-.6 0-.7-.6-.7h-9.8c-.8 0-.9.1-.9 1 0 3.3.9 4.4 3.8 4.4h.7v19.8l-.6.1Zm16.8-19.8h1.2v14.4c0 5.9 0 12 7.1 12 3.9 0 7.3-1 7.3-1.8 0-.1-.2-1.3-.3-1.8-.6-2.3-.8-3.2-5-2.6-.6.1-1 0-1.4-.3-.8-.8-.8-2.6-.8-4.1V33.8h3.8c2.9 0 3.8-1 3.8-4.4 0-1-.1-1-.9-1h-6.8v-8.6c0-.8-.1-.9-.3-.9-.3 0-1.7.2-2.4.2-2 .3-4 1.8-4 5.3v3.9h-3.9c-.8 0-.9.1-.9 1-.3 3.2.6 4.2 3.5 4.2Zm30.5 26.4c4.6 0 9.9-2.2 9.9-3.6 0-.2-.2-1.3-.6-2.2-.2-.7-.6-1.4-2.5-1.3-1.5.1-3.9.8-6.1.8-4.3 0-6.4-2.6-6.4-8.3h15.4c.9 0 1.2-.2 1.2-1.4 0-11.3-3.8-17-11.2-17-7.4 0-12.2 6.7-12.2 16.8-.1 13.4 6.7 16.2 12.5 16.2ZM126 39.4c.2-2.1.6-7 5-7 4.3 0 4.3 5 4.3 7.5H126v-.5Zm29.1 20.5c4.8 0 8.1-3.6 8.1-3.6l.3 1.4c.2 1 .3 1.2 1.2 1.2h7.9c.8 0 .9-.1.9-1 0-3.3-.9-4.4-3.9-4.4-.3-1.3-.6-2.4-.6-5.5V17.3c0-.6 0-.7-.6-.7h-9c-.8 0-1 .1-1 1 0 3.2.9 4.4 3.6 4.4h.2v7.1l-.6-.3c-1-.7-2.4-1.7-5.4-1.7-7 0-10.7 6.1-10.7 17.7 0 9.7 3.5 15.1 9.6 15.1Zm2.7-27.1c1.7 0 3.1.3 4.5 1.4v17.5c-.9 1-2.2 2.3-5 2.3-4.1 0-5-3.8-5-10.4.2-7 1-10.8 5.5-10.8Zm-107.4.7c.3 1.4.6 2.4.6 5.6v14.3c-2.9 0-3.7 1-3.7 4.4 0 1 .1 1 .9 1h9c.6 0 .6-.1.6-.7V35.8c.8-.8 2.6-2.8 5.1-2.8 3.3 0 3.5 3.9 3.5 5.5V58c0 .6 0 .7.6.7h8.9c.8 0 .9-.1.9-1 0-3.2-.9-4.4-3.7-4.4V36.7c0-6.8-2.2-9.8-7.1-9.8-4.5 0-6.9 2.5-8.8 4.5-.1-.7-.3-1.3-.3-1.3-.3-1.4-.6-2.2-1.4-2.2H48c-.8 0-.9.1-.9 1-.1 3.4.7 4.5 3.3 4.6ZM140.7 99V88.1c0-6.9-3-9.9-9.8-9.9-4.7 0-9.8 2.1-9.8 3.3 0 .1.2 1.2.6 2.1.1.3.5 1.4 2.4 1.2.8-.1 4.3-.7 5.8-.7 3.8 0 4.3 2.2 4.3 4.8v2.2c-4.8 0-15.2 0-15.2 10.5 0 5.9 3.2 9.6 8.5 9.6 4 0 6-2.2 7.1-3.5l.5-.5.1.8c.2 1.3.5 2.2 1.5 2.2h7c.9 0 .9-.1.9-1 0-3.1-.7-4.3-3.3-4.4-.2-1.4-.6-2.9-.6-5.8Zm-6.6 4.2c-.8.8-2.3 2.5-4.6 2.5s-4-2-4-4.5c0-5 5.2-5.3 7.7-5.3h.9v7.3Z" id="Shape"/><path d="M146.7 84.6h.9s5.4 19 8.3 26.9l-.5 1.5c-.9 3-2.5 4.4-5 4.4-.6 0-3.9-.5-3.9-.5-1.8-.1-2.4.7-2.6 1.3-.3.9-.6 2.1-.6 2.3 0 1.4 5.1 2.9 7.6 2.9 2.6 0 6.3-1 8.2-5.6 2-5 10.2-33.2 10.2-33.2h.9c1.8-.3 2.5-1.4 2.5-4.3 0-1-.1-1.2-.9-1.2H165c-.7 0-.7.1-.9.8l-5.6 21.8-5.9-21.8c-.2-.7-.2-.8-.9-.8H145c-.8 0-.9.1-.9 1.2 0 2.9.8 4 2.6 4.3ZM14.9 24.2h.2v20.3c0 10.9 4 15.5 13.5 15.5s13.5-4.6 13.5-15.5V24.2h.2c3 0 3.9-1 3.9-4.5 0-1-.1-1.2-1-1.2H31.7c-.8 0-.9.1-.9.6v.6c0 3.5.9 4.5 3.8 4.5h.2v20.3c0 3.9 0 9.1-6.2 9.1-5.8 0-6.2-4.1-6.2-9.1V24.2h.2c2.9 0 3.8-1.2 3.8-4.5V19c-.1-.3-.2-.5-.9-.5H12c-.8 0-1 .1-1 1.2-.1 3.5.9 4.5 3.9 4.5ZM270.8 77c.5.2 2 .9 2.4 1 .5.2.7.1 1-.5 1.5-3.6 2.4-7.5 2.4-11.6 0-16.2-13.1-29.4-29.4-29.4-16.2 0-29.4 13.1-29.4 29.4 0 3.3.6 6.4 1.6 9.4.1.5.3.7.9.5.6-.2 1.7-.8 2.3-1 .6-.3.6-.6.3-1-.8-2.5-1.3-5.1-1.3-7.8 0-14 11.4-25.4 25.4-25.4 14 0 25.4 11.4 25.4 25.4 0 3.6-.8 7-2.1 10.1.2.4.2.7.5.9Z" id="Shape"/><path d="M202.8 84.2c.7-.3 5.2-2.4 5.9-2.8.8-.3.5-.9.3-1.3-1.6-4.4-2.5-9.1-2.5-14 0-22.6 18.3-40.8 40.8-40.8 22.5 0 40.8 18.3 40.8 40.8 0 5.6-1.2 11.1-3.2 16-.1.3-.2.9.5 1.3s5 2.2 5.6 2.4c.6.2 1 .2 1.4-.7 2.5-5.9 3.8-12.3 3.8-19.1 0-26.9-21.9-48.8-48.8-48.8s-49 21.8-49 48.8c0 6.2 1.2 12.1 3.2 17.5.3.5.5 1 1.2.7Z" id="Path"/><path d="M277.5 79.9c.5.2 2.9 1.3 3.2 1.5.5.2.8.1 1-.5 2-4.6 3.1-9.7 3.1-14.9 0-20.7-16.8-37.7-37.5-37.7S209.6 45.2 209.6 66c0 4.6.8 9 2.3 13 .1.2.2.7.9.5.6-.3 2.6-1.3 3.2-1.5.6-.2.5-.7.3-.9-1.3-3.5-2-7.1-2-10.9 0-18 14.6-32.7 32.6-32.7s32.6 14.6 32.6 32.7c0 4.6-.9 9-2.6 13 .3 0 0 .5.6.7Z" id="Path"/><path d="M252.5 50.2c0-2.9-2.4-5.3-5.2-5.3-2.9 0-5.2 2.3-5.2 5.3 0 2.9 2.3 5.2 5.2 5.2 2.9.1 5.2-2.3 5.2-5.2Z" id="Path"/><path d="M245.4 82.9h3.8c1 0 1.8-.8 1.8-1.8V69.6c.1-1.5 1-3.3 2.1-4.4l10.8-10.8c.7-.7.7-2 0-2.6l-2-2c-.7-.7-2-.7-2.6 0l-9.8 9.8c-.7.6-1.2 1-2.3 1-1.3 0-1.7-.3-2.3-1l-9.8-9.8c-.3-.3-.8-.6-1.3-.6s-.9.2-1.3.6l-2 2c-.7.7-.7 2 0 2.6l10.8 10.8c1 1 2.1 3 2.1 4.4v11.5c.1.9.9 1.8 2 1.8Z" id="Path"/><path d="M283.3 87c-1.8.7-5.3 4-6.8 5.4l-.5.1c.6-.6 2.9-3.6 3.6-4.6 1.8-3.1-1.6-6-5.5-3.8-1.5.8-3.9 3.5-5.1 4.4l-.3.1c.6-.6 2.8-3.3 3.3-4.3 1.7-2.5-1.8-4.8-4.8-3-2.2 1.3-3.9 3.1-5.8 4.5l-.3.1c.5-.5 1.7-2 2.2-2.4 1.8-2.1-.8-4.4-3.5-2.9-2.6 1.4-6.3 5.1-10.5 7.7 2 1 5.3 1.2 10.6 3.5s7 7.6 3.6 11.7c-3.2 3.9-8.1 2.5-12.3 1.3-4.8-1.5-6.6-3.1-12.6-5.2-3.8-1.4-5.4-1.3-5.3-2.4.1-1.3 3.3-.5 6.4.6 8.6 3.1 20 10.2 22.9 2.5 2.2-6-7.7-8.6-11.5-9.3-5.3-1-9-5-13.6-7.4-6.9-3.7-12.3-3.8-16.2-3.1-4.3.8-10.4 4.3-14 6.4-2.5 1.5-2.4 3.8.1 7.4 8.9 12.6 23.5 20.8 40 20.8 17.5 0 32.8-9.3 41.5-23.1 1.7-3.3-1.3-6.7-5.6-5Z" id="Path"/></g></g></svg>

<?xml version="1.0" encoding="UTF-8"?>
<svg width="312px" height="133px" viewBox="0 0 312 133" version="1.1" xmlns="http://www.w3.org/2000/svg" xmlns:xlink="http://www.w3.org/1999/xlink">
    <!-- Generator: Sketch 61.2 (89653) - https://sketch.com -->
    <title>client-logo-unitedway</title>
    <desc>Created with Sketch.</desc>
    <g id="Page-1" stroke="none" stroke-width="1" fill="none" fill-rule="evenodd">
        <g id="client-logo-unitedway" fill="#13283A" fill-rule="nonzero">
            <path d="M0.3,0.6 L0.3,133 L311.2,133 L311.2,0.6 L0.3,0.6 Z M183.3,130.5 L3,130.5 L3,3.2 L183.2,3.2 L183.2,130.4 L183.3,130.4 L183.3,130.5 Z M308.7,130.5 L185.8,130.5 L185.8,3.2 L308.5,3.2 L308.5,130.4 L308.7,130.4 L308.7,130.5 Z" id="Shape"></path>
            <path d="M94.9,69.7 L89.1,97.8 L84.8,69.6 C84.7,68.9 84.7,68.8 84,68.8 L75.7,68.8 C74.9,68.8 74.7,68.9 74.7,70 C74.7,73.1 75.5,74.3 77.7,74.5 L78.5,74.6 L84.8,109.4 C85,110.2 85.1,110.3 85.8,110.3 L91.3,110.3 C92.2,110.3 92.2,110.3 92.3,109.4 L97.7,82.3 L102.3,109.4 C102.5,110.3 102.5,110.3 103.3,110.3 L108.8,110.3 C109.5,110.3 109.6,110.2 109.8,109.4 L116.9,74.6 L117.7,74.6 C119.9,74.4 120.7,73.2 120.7,70.1 C120.7,69.1 120.6,69.1 119.9,68.9 L111.8,68.9 C111.1,68.9 111.1,69 111,69.7 L106.4,97.9 L100.9,69.8 C100.8,69 100.7,68.9 99.7,68.9 L96,68.9 C95.1,68.6 95.1,68.9 94.9,69.7 Z M88.2,25.2 C90.5,25.2 92.2,23.2 92.2,20.7 C92.2,18.3 90.4,16.3 88.2,16.3 C85.9,16.3 84.1,18.3 84.1,20.7 C84.1,23.3 85.9,25.2 88.2,25.2 Z M84.1,53.3 C81.2,53.3 80.3,54.3 80.3,57.7 C80.3,58.7 80.4,58.7 81.2,58.7 L95.1,58.7 C95.9,58.7 96,58.6 96,57.7 C96,54.4 95.1,53.3 92.2,53.3 L91.5,53.3 L91.5,28.7 C91.5,28.1 91.5,28 90.9,28 L81.1,28 C80.3,28 80.2,28.1 80.2,29 C80.2,32.3 81.1,33.4 84,33.4 L84.7,33.4 L84.7,53.2 L84.1,53.3 L84.1,53.3 Z M100.9,33.5 L102.1,33.5 L102.1,47.9 C102.1,53.8 102.1,59.9 109.2,59.9 C113.1,59.9 116.5,58.9 116.5,58.1 C116.5,58 116.3,56.8 116.2,56.3 C115.6,54 115.4,53.1 111.2,53.7 C110.6,53.8 110.2,53.7 109.8,53.4 C109,52.6 109,50.8 109,49.3 L109,33.8 L112.8,33.8 C115.7,33.8 116.6,32.8 116.6,29.4 C116.6,28.4 116.5,28.4 115.7,28.4 L108.9,28.4 L108.9,19.8 C108.9,19 108.8,18.9 108.6,18.9 C108.3,18.9 106.9,19.1 106.2,19.1 C104.2,19.4 102.2,20.9 102.2,24.4 L102.2,28.3 L98.3,28.3 C97.5,28.3 97.4,28.4 97.4,29.3 C97.1,32.5 98,33.5 100.9,33.5 L100.9,33.5 Z M131.4,59.9 C136,59.9 141.3,57.7 141.3,56.3 C141.3,56.1 141.1,55 140.7,54.1 C140.5,53.4 140.1,52.7 138.2,52.8 C136.7,52.9 134.3,53.6 132.1,53.6 C127.8,53.6 125.7,51 125.7,45.3 L141.1,45.3 C142,45.3 142.3,45.1 142.3,43.9 C142.3,32.6 138.5,26.9 131.1,26.9 C123.7,26.9 118.9,33.6 118.9,43.7 C118.8,57.1 125.6,59.9 131.4,59.9 L131.4,59.9 Z M126,39.4 C126.2,37.3 126.6,32.4 131,32.4 C135.3,32.4 135.3,37.4 135.3,39.9 L126,39.9 L126,39.4 L126,39.4 Z M155.1,59.9 C159.9,59.9 163.2,56.3 163.2,56.3 L163.5,57.7 C163.7,58.7 163.8,58.9 164.7,58.9 L172.6,58.9 C173.4,58.9 173.5,58.8 173.5,57.9 C173.5,54.6 172.6,53.5 169.6,53.5 C169.3,52.2 169,51.1 169,48 L169,17.3 C169,16.7 169,16.6 168.4,16.6 L159.4,16.6 C158.6,16.6 158.4,16.7 158.4,17.6 C158.4,20.8 159.3,22 162,22 L162.2,22 L162.2,29.1 L161.6,28.8 C160.6,28.1 159.2,27.1 156.2,27.1 C149.2,27.1 145.5,33.2 145.5,44.8 C145.5,54.5 149,59.9 155.1,59.9 L155.1,59.9 Z M157.8,32.8 C159.5,32.8 160.9,33.1 162.3,34.2 L162.3,51.7 C161.4,52.7 160.1,54 157.3,54 C153.2,54 152.3,50.2 152.3,43.6 C152.5,36.6 153.3,32.8 157.8,32.8 Z M50.4,33.5 C50.7,34.9 51,35.9 51,39.1 L51,53.4 C48.1,53.4 47.3,54.4 47.3,57.8 C47.3,58.8 47.4,58.8 48.2,58.8 L57.2,58.8 C57.8,58.8 57.8,58.7 57.8,58.1 L57.8,35.8 C58.6,35 60.4,33 62.9,33 C66.2,33 66.4,36.9 66.4,38.5 L66.4,58 C66.4,58.6 66.4,58.7 67,58.7 L75.9,58.7 C76.7,58.7 76.8,58.6 76.8,57.7 C76.8,54.5 75.9,53.3 73.1,53.3 L73.1,36.7 C73.1,29.9 70.9,26.9 66,26.9 C61.5,26.9 59.1,29.4 57.2,31.4 C57.1,30.7 56.9,30.1 56.9,30.1 C56.6,28.7 56.3,27.9 55.5,27.9 L48,27.9 C47.2,27.9 47.1,28 47.1,28.9 C47,32.3 47.8,33.4 50.4,33.5 L50.4,33.5 Z M140.7,99 L140.7,88.1 C140.7,81.2 137.7,78.2 130.9,78.2 C126.2,78.2 121.1,80.3 121.1,81.5 C121.1,81.6 121.3,82.7 121.7,83.6 C121.8,83.9 122.2,85 124.1,84.8 C124.9,84.7 128.4,84.1 129.9,84.1 C133.7,84.1 134.2,86.3 134.2,88.9 L134.2,91.1 C129.4,91.1 119,91.1 119,101.6 C119,107.5 122.2,111.2 127.5,111.2 C131.5,111.2 133.5,109 134.6,107.7 L135.1,107.2 L135.2,108 C135.4,109.3 135.7,110.2 136.7,110.2 L143.7,110.2 C144.6,110.2 144.6,110.1 144.6,109.2 C144.6,106.1 143.9,104.9 141.3,104.8 C141.1,103.4 140.7,101.9 140.7,99 L140.7,99 Z M134.1,103.2 C133.3,104 131.8,105.7 129.5,105.7 C127.2,105.7 125.5,103.7 125.5,101.2 C125.5,96.2 130.7,95.9 133.2,95.9 L134.1,95.9 L134.1,103.2 Z" id="Shape"></path>
            <path d="M146.7,84.6 L147.6,84.6 C147.6,84.6 153,103.6 155.9,111.5 L155.4,113 C154.5,116 152.9,117.4 150.4,117.4 C149.8,117.4 146.5,116.9 146.5,116.9 C144.7,116.8 144.1,117.6 143.9,118.2 C143.6,119.1 143.3,120.3 143.3,120.5 C143.3,121.9 148.4,123.4 150.9,123.4 C153.5,123.4 157.2,122.4 159.1,117.8 C161.1,112.8 169.3,84.6 169.3,84.6 L170.2,84.6 C172,84.3 172.7,83.2 172.7,80.3 C172.7,79.3 172.6,79.1 171.8,79.1 L165,79.1 C164.3,79.1 164.3,79.2 164.1,79.9 L158.5,101.7 L152.6,79.9 C152.4,79.2 152.4,79.1 151.7,79.1 L145,79.1 C144.2,79.1 144.1,79.2 144.1,80.3 C144.1,83.2 144.9,84.3 146.7,84.6 L146.7,84.6 Z M14.9,24.2 L15.1,24.2 L15.1,44.5 C15.1,55.4 19.1,60 28.6,60 C38.1,60 42.1,55.4 42.1,44.5 L42.1,24.2 L42.3,24.2 C45.3,24.2 46.2,23.2 46.2,19.7 C46.2,18.7 46.1,18.5 45.2,18.5 L31.7,18.5 C30.9,18.5 30.8,18.6 30.8,19.1 L30.8,19.7 C30.8,23.2 31.7,24.2 34.6,24.2 L34.8,24.2 L34.8,44.5 C34.8,48.4 34.8,53.6 28.6,53.6 C22.8,53.6 22.4,49.5 22.4,44.5 L22.4,24.2 L22.6,24.2 C25.5,24.2 26.4,23 26.4,19.7 L26.4,19 C26.3,18.7 26.2,18.5 25.5,18.5 L12,18.5 C11.2,18.5 11,18.6 11,19.7 C10.9,23.2 11.9,24.2 14.9,24.2 Z M270.8,77 C271.3,77.2 272.8,77.9 273.2,78 C273.7,78.2 273.9,78.1 274.2,77.5 C275.7,73.9 276.6,70 276.6,65.9 C276.6,49.7 263.5,36.5 247.2,36.5 C231,36.5 217.8,49.6 217.8,65.9 C217.8,69.2 218.4,72.3 219.4,75.3 C219.5,75.8 219.7,76 220.3,75.8 C220.9,75.6 222,75 222.6,74.8 C223.2,74.5 223.2,74.2 222.9,73.8 C222.1,71.3 221.6,68.7 221.6,66 C221.6,52 233,40.6 247,40.6 C261,40.6 272.4,52 272.4,66 C272.4,69.6 271.6,73 270.3,76.1 C270.5,76.5 270.5,76.8 270.8,77 L270.8,77 Z" id="Shape"></path>
            <path d="M202.8,84.2 C203.5,83.9 208,81.8 208.7,81.4 C209.5,81.1 209.2,80.5 209,80.1 C207.4,75.7 206.5,71 206.5,66.1 C206.5,43.5 224.8,25.3 247.3,25.3 C269.8,25.3 288.1,43.6 288.1,66.1 C288.1,71.7 286.9,77.2 284.9,82.1 C284.8,82.4 284.7,83 285.4,83.4 C286.1,83.8 290.4,85.6 291,85.8 C291.6,86 292,86 292.4,85.1 C294.9,79.2 296.2,72.8 296.2,66 C296.2,39.1 274.3,17.2 247.4,17.2 C220.5,17.2 198.4,39 198.4,66 C198.4,72.2 199.6,78.1 201.6,83.5 C201.9,84 202.1,84.5 202.8,84.2 Z" id="Path"></path>
            <path d="M277.5,79.9 C278,80.1 280.4,81.2 280.7,81.4 C281.2,81.6 281.5,81.5 281.7,80.9 C283.7,76.3 284.8,71.2 284.8,66 C284.8,45.3 268,28.3 247.3,28.3 C226.6,28.3 209.6,45.2 209.6,66 C209.6,70.6 210.4,75 211.9,79 C212,79.2 212.1,79.7 212.8,79.5 C213.4,79.2 215.4,78.2 216,78 C216.6,77.8 216.5,77.3 216.3,77.1 C215,73.6 214.3,70 214.3,66.2 C214.3,48.2 228.9,33.5 246.9,33.5 C264.9,33.5 279.5,48.1 279.5,66.2 C279.5,70.8 278.6,75.2 276.9,79.2 C277.2,79.2 276.9,79.7 277.5,79.9 L277.5,79.9 Z" id="Path"></path>
            <path d="M252.5,50.2 C252.5,47.3 250.1,44.9 247.3,44.9 C244.4,44.9 242.1,47.2 242.1,50.2 C242.1,53.1 244.4,55.4 247.3,55.4 C250.2,55.5 252.5,53.1 252.5,50.2 Z" id="Path"></path>
            <path d="M245.4,82.9 L249.2,82.9 C250.2,82.9 251,82.1 251,81.1 L251,69.6 C251.1,68.1 252,66.3 253.1,65.2 L263.9,54.4 C264.6,53.7 264.6,52.4 263.9,51.8 L261.9,49.8 C261.2,49.1 259.9,49.1 259.3,49.8 L249.5,59.6 C248.8,60.2 248.3,60.6 247.2,60.6 C245.9,60.6 245.5,60.3 244.9,59.6 L235.1,49.8 C234.8,49.5 234.3,49.2 233.8,49.2 C233.3,49.2 232.9,49.4 232.5,49.8 L230.5,51.8 C229.8,52.5 229.8,53.8 230.5,54.4 L241.3,65.2 C242.3,66.2 243.4,68.2 243.4,69.6 L243.4,81.1 C243.5,82 244.3,82.9 245.4,82.9 Z" id="Path"></path>
            <path d="M283.3,87 C281.5,87.7 278,91 276.5,92.4 L276,92.5 C276.6,91.9 278.9,88.9 279.6,87.9 C281.4,84.8 278,81.9 274.1,84.1 C272.6,84.9 270.2,87.6 269,88.5 L268.7,88.6 C269.3,88 271.5,85.3 272,84.3 C273.7,81.8 270.2,79.5 267.2,81.3 C265,82.6 263.3,84.4 261.4,85.8 L261.1,85.9 C261.6,85.4 262.8,83.9 263.3,83.5 C265.1,81.4 262.5,79.1 259.8,80.6 C257.2,82 253.5,85.7 249.3,88.3 C251.3,89.3 254.6,89.5 259.9,91.8 C265.2,94.1 266.9,99.4 263.5,103.5 C260.3,107.4 255.4,106 251.2,104.8 C246.4,103.3 244.6,101.7 238.6,99.6 C234.8,98.2 233.2,98.3 233.3,97.2 C233.4,95.9 236.6,96.7 239.7,97.8 C248.3,100.9 259.7,108 262.6,100.3 C264.8,94.3 254.9,91.7 251.1,91 C245.8,90 242.1,86 237.5,83.6 C230.6,79.9 225.2,79.8 221.3,80.5 C217,81.3 210.9,84.8 207.3,86.9 C204.8,88.4 204.9,90.7 207.4,94.3 C216.3,106.9 230.9,115.1 247.4,115.1 C264.9,115.1 280.2,105.8 288.9,92 C290.6,88.7 287.6,85.3 283.3,87 L283.3,87 Z" id="Path"></path>
        </g>
    </g>
</svg>
